X: 1
T: Coolin, The
M: 3/4
L: 1/8
R: waltz
K: Cmaj
G A/2B/2| (c2 B/2c/2)  (d>B/1)| c2 E2 (3CEG|(c>B/1) cd/2e/2 d> c/1|
c2B2 c> B/1|A2> B/1 c/1 (d/2c/2) (B/2A/2)|G2 (EG) c G|B/2A/2G/2F/2 E C {D/2E/2}D C |
C4  G> F/1| (E>D/1) (C>D/1) (E>^F/1)|(G>^F/1 G>A/1) B> G/1|(c>B/1) (cd/2e/2) d> c/1|
(c2 B2) c> B/1|(A2> Bc) (d/2c/2) (B/2A/2)|G2 (EG) c G|B/2A/2G/2F/2 E C {D/2E/2}D C | C4||
